X:0071
M:2/4
L:1/8
K:D
fdfd|faag/f/|ecec|eggf/e/|fdfd|faac|d/c/B/c/ dF|E2 D2:|

